svg/u1f468_1f3fb_200d_1f393.svg

<svg viewBox="0 0 128 128" xmlns="http://www.w3.org/2000/svg">
  <path id="neck" d="M73.76,89.08H54.23v19.33c0,4.85,3.98,8.78,8.88,8.78h1.77c4.9,0,8.88-3.93,8.88-8.78 V89.08H73.76z" fill="#EDC391"/>
  <g id="face">
    <path id="ears" d="M91.33,50.41H36.67c-5.89,0-10.71,5.14-10.71,11.41c0,6.28,4.82,11.41,10.71,11.41h54.65 c5.89,0,10.71-5.14,10.71-11.41C102.04,55.55,97.22,50.41,91.33,50.41z" fill="#EDC391"/>
    <path id="head" d="M64,11.05c-17.4,0-33.52,18.61-33.52,45.39c0,26.64,16.61,39.81,33.52,39.81 s33.52-13.17,33.52-39.81C97.52,29.66,81.4,11.05,64,11.05z" fill="#F9DDBD"/>
    <g id="eyes">
      <ellipse cx="47.56" cy="58.79" fill="#312D2D" rx="4.93" ry="5.1"/>
      <ellipse cx="80.44" cy="58.79" fill="#312D2D" rx="4.93" ry="5.1"/>
    </g>
    <path id="nose" d="M67.86,68.04c-0.11-0.04-0.21-0.07-0.32-0.08h-7.07c-0.11,0.01-0.22,0.04-0.32,0.08 c-0.64,0.26-0.99,0.92-0.69,1.63s1.71,2.69,4.55,2.69s4.25-1.99,4.55-2.69C68.85,68.96,68.5,68.3,67.86,68.04z" fill="#DBA689"/>
    <path id="mouth" d="M72.42,76.12c-3.19,1.89-13.63,1.89-16.81,0c-1.83-1.09-3.7,0.58-2.94,2.24 c0.75,1.63,6.45,5.42,11.37,5.42s10.55-3.79,11.3-5.42C76.09,76.7,74.25,75.03,72.42,76.12z" fill="#444444"/>
  </g>
  <g id="hairGroup">
    <path id="hair_7_" d="M64.02,5.03L64.02,5.03c-0.01,0-0.01,0-0.02,0c-0.01,0-0.01,0-0.02,0l0,0 C18.54,5.27,27.85,55.17,27.85,55.17s2.04,5.35,2.97,7.71c0.13,0.34,0.63,0.3,0.71-0.05c0.97-4.34,4.46-19.73,6.22-24.41 c1.04-2.76,3.9-4.36,6.79-3.83C49,35.4,56.09,36.4,63.92,36.4c0.03,0,0.06,0,0.08,0c0.03,0,0.06,0,0.08,0 c7.82,0,14.92-1,19.37-1.81c2.9-0.53,5.76,1.08,6.79,3.83c1.75,4.66,5.22,19.96,6.2,24.36c0.08,0.36,0.58,0.39,0.71,0.05l2.98-7.67 C100.15,55.17,109.45,5.27,64.02,5.03z" fill="#312D2D"/>
    <radialGradient id="hairHighlights_1_" cx="64.0005" cy="81.2207" gradientTransform="matrix(1 0 0 -1.1282 0 138.2978)" gradientUnits="userSpaceOnUse" r="37.8732">
      <stop offset="0.7945" stop-color="#454140" stop-opacity="0"/>
      <stop offset="1" stop-color="#454140"/>
    </radialGradient>
    <path id="hairHighlights" d="M100.15,55.17c0,0,9.31-49.9-36.13-50.14v0 c-0.01,0-0.01,0-0.02,0h0c-0.01,0-0.01,0-0.02,0l0,0c-0.71,0-1.4,0.02-2.08,0.05c-1.35,0.06-2.66,0.16-3.92,0.31 c-0.01,0-0.03,0-0.04,0c-0.09,0.01-0.17,0.03-0.26,0.04c-38.25,4.81-29.84,49.74-29.84,49.74l2.98,7.68 c0.13,0.34,0.62,0.31,0.7-0.05c0.98-4.39,4.46-19.71,6.22-24.37c1.04-2.76,3.9-4.36,6.8-3.83C49,35.4,56.09,36.4,63.92,36.4 c0.03,0,0.06,0,0.08,0c0.03,0,0.06,0,0.08,0c7.82,0,14.92-1,19.37-1.81c2.9-0.53,5.76,1.08,6.79,3.83 c1.76,4.68,5.25,20.1,6.21,24.42c0.08,0.36,0.57,0.39,0.7,0.05C98.09,60.54,100.15,55.17,100.15,55.17z" fill="url(#hairHighlights_1_)"/>
  </g>
  <g id="eyebrows_1_">
    <path d="M40.01,50.72c2.99-4.23,9.78-4.63,13.67-1.48c0.62,0.5,1.44,1.2,1.68,1.98 c0.4,1.27-0.82,2.26-2.01,1.96c-0.76-0.19-1.47-0.6-2.22-0.83c-1.37-0.43-2.36-0.55-3.59-0.55c-1.82-0.01-2.99,0.22-4.72,0.92 c-0.71,0.29-1.29,0.75-2.1,0.41C39.79,52.74,39.45,51.56,40.01,50.72z" fill="#454140"/>
    <path d="M86.07,53.12c-0.29-0.13-0.57-0.29-0.86-0.41c-1.78-0.74-2.79-0.93-4.72-0.92 c-1.7,0.01-2.71,0.24-4.04,0.69c-0.81,0.28-1.84,0.98-2.74,0.71c-1.32-0.4-1.28-1.84-0.56-2.76c0.86-1.08,2.04-1.9,3.29-2.44 c2.9-1.26,6.44-1.08,9.17,0.55c0.89,0.53,1.86,1.26,2.4,2.18C88.79,52.03,87.61,53.75,86.07,53.12z" fill="#454140"/>
  </g>
  <g id="hat_1_">
    <g>
      <g>
        <g>
          <path d="M116.5,54.28c-1.24,0-2.25,0.96-2.25,2.14v9.2c0,1.18,1.01,2.14,2.25,2.14s2.25-0.96,2.25-2.14 v-9.2C118.75,55.24,117.74,54.28,116.5,54.28z" fill="#E8AD00"/>
          <path d="M112,54.28c-1.24,0-2.25,0.96-2.25,2.14v9.2c0,1.18,1.01,2.14,2.25,2.14s2.25-0.96,2.25-2.14 v-9.2C114.25,55.24,113.24,54.28,112,54.28z" fill="#E8AD00"/>
          <path d="M114.25,54.28c-1.24,0-2.25,0.96-2.25,2.14v11.19c0,1.18,1.01,2.14,2.25,2.14 s2.25-0.96,2.25-2.14V56.42C116.5,55.24,115.49,54.28,114.25,54.28z" fill="#FFCA28"/>
        </g>
        <ellipse cx="114.25" cy="53.05" fill="#FFCA28" rx="2.76" ry="2.63"/>
      </g>
      <path d="M114.25,53.02L114.25,53.02c-0.55,0-1-0.45-1-1v-38c0-0.55,0.45-1,1-1l0,0c0.55,0,1,0.45,1,1v38 C115.25,52.58,114.8,53.02,114.25,53.02z" fill="#504F4F"/>
    </g>
    <g>
      <linearGradient id="SVGID_1_" gradientTransform="matrix(1 0 0 -1 0 128)" gradientUnits="userSpaceOnUse" x1="64" x2="64" y1="127.3507" y2="98.7102">
        <stop offset="3.200000e-03" stop-color="#424242"/>
        <stop offset="0.4718" stop-color="#353535"/>
        <stop offset="1" stop-color="#212121"/>
      </linearGradient>
      <path d="M116,12.98c-30.83-7.75-52-8-52-8s-21.17,0.25-52,8v0.77c0,1.33,0.87,2.5,2.14,2.87 c3.72,1.1,13.13,3.53,18.18,4.54c-0.08,0.08-1.1,1.87-1.83,3.53c0,0,8.14,5.72,33.52,8.28c25.38-2.56,33.76-7.58,33.76-7.58 c-0.88-1.81-1.79-3.49-1.79-3.49c4.5-0.74,14.23-4.07,17.95-5.26c1.25-0.4,2.09-1.55,2.09-2.86V12.98z" fill="url(#SVGID_1_)"/>
    </g>
    <linearGradient id="SVGID_2_" gradientTransform="matrix(1 0 0 -1 0 128)" gradientUnits="userSpaceOnUse" x1="64" x2="64" y1="127.184" y2="96.184">
      <stop offset="3.200000e-03" stop-color="#616161"/>
      <stop offset="0.3237" stop-color="#505050"/>
      <stop offset="0.955" stop-color="#242424"/>
      <stop offset="1" stop-color="#212121"/>
    </linearGradient>
    <path d="M64,4.98c0,0-21.17,0.25-52,8c0,0,35.41,9.67,52,9.38c16.59,0.29,52-9.38,52-9.38 C85.17,5.23,64,4.98,64,4.98z" fill="url(#SVGID_2_)"/>
    <linearGradient id="SVGID_3_" gradientTransform="matrix(1 0 0 -1 0 128)" gradientUnits="userSpaceOnUse" x1="13.8925" x2="114.7207" y1="109.017" y2="109.017">
      <stop offset="1.200000e-03" stop-color="#BFBEBE"/>
      <stop offset="0.3" stop-color="#212121" stop-opacity="0"/>
      <stop offset="0.7" stop-color="#212121" stop-opacity="0"/>
      <stop offset="1" stop-color="#BFBEBE"/>
    </linearGradient>
    <path d="M116,12.98c-30.83-7.75-52-8-52-8s-21.17,0.25-52,8 v0.77c0,1.33,0.87,2.5,2.14,2.87c3.72,1.1,13.13,3.69,18.18,4.71c0,0-0.96,1.56-1.83,3.53c0,0,8.14,5.55,33.52,8.12 c25.38-2.56,33.76-7.58,33.76-7.58c-0.88-1.81-1.79-3.49-1.79-3.49c4.5-0.74,14.23-4.07,17.95-5.26c1.25-0.4,2.09-1.55,2.09-2.86 V12.98z" enable-background="new " fill="url(#SVGID_3_)" opacity="0.4"/>
  </g>
  <g>
    <path d="M114.5,120.99c0-14.61-21.75-21.54-40.72-23.1l-8.6,11.03c-0.28,0.36-0.72,0.58-1.18,0.58 c-0.46,0-0.9-0.21-1.18-0.58L54.2,97.87c-10.55,0.81-40.71,4.75-40.71,23.12V124h101L114.5,120.99L114.5,120.99z" fill="#212121"/>
    <radialGradient id="SVGID_4_" cx="64" cy="5.3966" gradientTransform="matrix(1 0 0 -0.5247 0 125.4353)" gradientUnits="userSpaceOnUse" r="54.167">
      <stop offset="0.5981" stop-color="#212121"/>
      <stop offset="1" stop-color="#616161"/>
    </radialGradient>
    <path d="M114.5,120.99c0-14.61-21.75-21.54-40.72-23.1l-8.6,11.03c-0.28,0.36-0.72,0.58-1.18,0.58 c-0.46,0-0.9-0.21-1.18-0.58L54.2,97.87c-10.55,0.81-40.71,4.75-40.71,23.12V124h101L114.5,120.99L114.5,120.99z" fill="url(#SVGID_4_)"/>
  </g>
</svg>

<svg viewBox="0 0 128 128" xmlns="http://www.w3.org/2000/svg">
  <defs>
    <radialGradient id="hairHighlights_1_" cx="64.0005" cy="-41.361998" gradientTransform="matrix(1 0 0 -1.1282 0 0)" gradientUnits="userSpaceOnUse" r="37.8732">
      <stop offset="0.7945" stop-color="#454140" stop-opacity="0"/>
      <stop offset="1" stop-color="#454140"/>
    </radialGradient>
    <linearGradient id="SVGID_2_" gradientTransform="matrix(1 0 0 -1 0 0)" gradientUnits="userSpaceOnUse" x1="64" x2="64" y1="-0.816" y2="-31.816">
      <stop offset="3.200000e-03" stop-color="#616161"/>
      <stop offset="0.3237" stop-color="#505050"/>
      <stop offset="0.955" stop-color="#242424"/>
      <stop offset="1" stop-color="#212121"/>
    </linearGradient>
    <linearGradient id="SVGID_3_" gradientTransform="matrix(1 0 0 -1 0 0)" gradientUnits="userSpaceOnUse" x1="13.8925" x2="114.7207" y1="-18.983" y2="-18.983">
      <stop offset="1.200000e-03" stop-color="#BFBEBE"/>
      <stop offset="0.3" stop-color="#212121" stop-opacity="0"/>
      <stop offset="0.7" stop-color="#212121" stop-opacity="0"/>
      <stop offset="1" stop-color="#BFBEBE"/>
    </linearGradient>
    <radialGradient id="SVGID_4_" cx="64" cy="-233.664387" gradientTransform="matrix(1 0 0 -0.5247 0 0)" gradientUnits="userSpaceOnUse" r="54.167">
      <stop offset="0.5981" stop-color="#212121"/>
      <stop offset="1" stop-color="#616161"/>
    </radialGradient>
    <linearGradient id="SVGID_1_" gradientTransform="matrix(1 0 0 -1 0 0)" gradientUnits="userSpaceOnUse" x1="64" x2="64" y1="-0.6493" y2="-29.2898">
      <stop offset="3.200000e-03" stop-color="#424242"/>
      <stop offset="0.4718" stop-color="#353535"/>
      <stop offset="1" stop-color="#212121"/>
    </linearGradient>
  </defs>
  <path id="neck" d="M73.76,89.08 L54.23,89.08 L54.23,108.41 C54.23,113.26 58.21,117.19 63.11,117.19 L64.88,117.19 C69.78,117.19 73.76,113.26 73.76,108.41 L73.76,89.08 L73.76,89.08 Z" fill="#EDC391"/>
  <path id="ears" d="M91.33,50.41 L36.67,50.41 C30.78,50.41 25.96,55.55 25.96,61.82 C25.96,68.1 30.78,73.23 36.67,73.23 L91.32,73.23 C97.21,73.23 102.03,68.09 102.03,61.82 C102.04,55.55 97.22,50.41 91.33,50.41 Z" fill="#EDC391"/>
  <path id="head" d="M64,11.05 C46.6,11.05 30.48,29.66 30.48,56.44 C30.48,83.08 47.09,96.25 64,96.25 C80.91,96.25 97.52,83.08 97.52,56.44 C97.52,29.66 81.4,11.05 64,11.05 Z" fill="#F9DDBD"/>
  <path d="M52.49,58.79 A4.93 5.1 0 1 1 42.63,58.79 A4.93 5.1 0 1 1 52.49,58.79 Z" fill="#312D2D"/>
  <path d="M85.37,58.79 A4.93 5.1 0 1 1 75.51,58.79 A4.93 5.1 0 1 1 85.37,58.79 Z" fill="#312D2D"/>
  <path id="nose" d="M67.86,68.04 C67.75,68 67.65,67.97 67.54,67.96 L60.47,67.96 C60.36,67.97 60.25,68 60.15,68.04 C59.51,68.3 59.16,68.96 59.46,69.67 C59.76,70.38 61.17,72.36 64.01,72.36 C66.85,72.36 68.26,70.37 68.56,69.67 C68.85,68.96 68.5,68.3 67.86,68.04 Z" fill="#DBA689"/>
  <path id="mouth" d="M72.42,76.12 C69.23,78.01 58.79,78.01 55.61,76.12 C53.78,75.03 51.91,76.7 52.67,78.36 C53.42,79.99 59.12,83.78 64.04,83.78 C68.96,83.78 74.59,79.99 75.34,78.36 C76.09,76.7 74.25,75.03 72.42,76.12 Z" fill="#444444"/>
  <path id="hair_7_" d="M64.02,5.03 L64.02,5.03 C64.01,5.03 64.01,5.03 64,5.03 C63.99,5.03 63.99,5.03 63.98,5.03 L63.98,5.03 C18.54,5.27 27.85,55.17 27.85,55.17 C27.85,55.17 29.89,60.52 30.82,62.88 C30.95,63.22 31.45,63.18 31.53,62.83 C32.5,58.49 35.99,43.1 37.75,38.42 C38.79,35.66 41.65,34.06 44.54,34.59 C49,35.4 56.09,36.4 63.92,36.4 C63.95,36.4 63.98,36.4 64,36.4 C64.03,36.4 64.06,36.4 64.08,36.4 C71.9,36.4 79,35.4 83.45,34.59 C86.35,34.06 89.21,35.67 90.24,38.42 C91.99,43.08 95.46,58.38 96.44,62.78 C96.52,63.14 97.02,63.17 97.15,62.83 L100.13,55.16 C100.15,55.17 109.45,5.27 64.02,5.03 Z" fill="#312D2D"/>
  <path id="hairHighlights" d="M100.15,55.17 C100.15,55.17 109.46,5.27 64.02,5.03 L64.02,5.03 C64.01,5.03 64.01,5.03 64,5.03 L64,5.03 C63.99,5.03 63.99,5.03 63.98,5.03 L63.98,5.03 C63.27,5.03 62.58,5.05 61.9,5.08 C60.55,5.14 59.24,5.24 57.98,5.39 C57.97,5.39 57.95,5.39 57.94,5.39 C57.85,5.4 57.77,5.42 57.68,5.43 C19.43,10.24 27.84,55.17 27.84,55.17 L30.82,62.85 C30.95,63.19 31.44,63.16 31.52,62.8 C32.5,58.41 35.98,43.09 37.74,38.43 C38.78,35.67 41.64,34.07 44.54,34.6 C49,35.4 56.09,36.4 63.92,36.4 C63.95,36.4 63.98,36.4 64,36.4 C64.03,36.4 64.06,36.4 64.08,36.4 C71.9,36.4 79,35.4 83.45,34.59 C86.35,34.06 89.21,35.67 90.24,38.42 C92,43.1 95.49,58.52 96.45,62.84 C96.53,63.2 97.02,63.23 97.15,62.89 C98.09,60.54 100.15,55.17 100.15,55.17 Z" fill="url(#hairHighlights_1_)"/>
  <path d="M40.01,50.72 C43,46.49 49.79,46.09 53.68,49.24 C54.3,49.74 55.12,50.44 55.36,51.22 C55.76,52.49 54.54,53.48 53.35,53.18 C52.59,52.99 51.88,52.58 51.13,52.35 C49.76,51.92 48.77,51.8 47.54,51.8 C45.72,51.79 44.55,52.02 42.82,52.72 C42.11,53.01 41.53,53.47 40.72,53.13 C39.79,52.74 39.45,51.56 40.01,50.72 Z" fill="#454140"/>
  <path d="M86.07,53.12 C85.78,52.99 85.5,52.83 85.21,52.71 C83.43,51.97 82.42,51.78 80.49,51.79 C78.79,51.8 77.78,52.03 76.45,52.48 C75.64,52.76 74.61,53.46 73.71,53.19 C72.39,52.79 72.43,51.35 73.15,50.43 C74.01,49.35 75.19,48.53 76.44,47.99 C79.34,46.73 82.88,46.91 85.61,48.54 C86.5,49.07 87.47,49.8 88.01,50.72 C88.79,52.03 87.61,53.75 86.07,53.12 Z" fill="#454140"/>
  <path d="M116.5,54.28 C115.26,54.28 114.25,55.24 114.25,56.42 L114.25,65.62 C114.25,66.8 115.26,67.76 116.5,67.76 C117.74,67.76 118.75,66.8 118.75,65.62 L118.75,56.42 C118.75,55.24 117.74,54.28 116.5,54.28 Z" fill="#E8AD00"/>
  <path d="M112,54.28 C110.76,54.28 109.75,55.24 109.75,56.42 L109.75,65.62 C109.75,66.8 110.76,67.76 112,67.76 C113.24,67.76 114.25,66.8 114.25,65.62 L114.25,56.42 C114.25,55.24 113.24,54.28 112,54.28 Z" fill="#E8AD00"/>
  <path d="M114.25,54.28 C113.01,54.28 112,55.24 112,56.42 L112,67.61 C112,68.79 113.01,69.75 114.25,69.75 C115.49,69.75 116.5,68.79 116.5,67.61 L116.5,56.42 C116.5,55.24 115.49,54.28 114.25,54.28 Z" fill="#FFCA28"/>
  <path d="M117.01,53.05 A2.76 2.63 0 1 1 111.49,53.05 A2.76 2.63 0 1 1 117.01,53.05 Z" fill="#FFCA28"/>
  <path d="M114.25,53.02 L114.25,53.02 C113.7,53.02 113.25,52.57 113.25,52.02 L113.25,14.02 C113.25,13.47 113.7,13.02 114.25,13.02 L114.25,13.02 C114.8,13.02 115.25,13.47 115.25,14.02 L115.25,52.02 C115.25,52.58 114.8,53.02 114.25,53.02 Z" fill="#504F4F"/>
  <path d="M116,12.98 C85.17,5.23 64,4.98 64,4.98 C64,4.98 42.83,5.23 12,12.98 L12,13.75 C12,15.08 12.87,16.25 14.14,16.62 C17.86,17.72 27.27,20.15 32.32,21.16 C32.24,21.24 31.22,23.03 30.49,24.69 C30.49,24.69 38.63,30.41 64.01,32.97 C89.39,30.41 97.77,25.39 97.77,25.39 C96.89,23.58 95.98,21.9 95.98,21.9 C100.48,21.16 110.21,17.83 113.93,16.64 C115.18,16.24 116.02,15.09 116.02,13.78 L116.02,12.98 Z" fill="url(#SVGID_1_)"/>
  <path d="M64,4.98 C64,4.98 42.83,5.23 12,12.98 C12,12.98 47.41,22.65 64,22.36 C80.59,22.65 116,12.98 116,12.98 C85.17,5.23 64,4.98 64,4.98 Z" fill="url(#SVGID_2_)"/>
  <path d="M116,12.98 C85.17,5.23 64,4.98 64,4.98 C64,4.98 42.83,5.23 12,12.98 L12,13.75 C12,15.08 12.87,16.25 14.14,16.62 C17.86,17.72 27.27,20.31 32.32,21.33 C32.32,21.33 31.36,22.89 30.49,24.86 C30.49,24.86 38.63,30.41 64.01,32.98 C89.39,30.42 97.77,25.4 97.77,25.4 C96.89,23.59 95.98,21.91 95.98,21.91 C100.48,21.17 110.21,17.84 113.93,16.65 C115.18,16.25 116.02,15.1 116.02,13.79 L116.02,12.98 Z" fill="url(#SVGID_3_)" opacity="0.4"/>
  <path d="M114.5,120.99 C114.5,106.38 92.75,99.45 73.78,97.89 L65.18,108.92 C64.9,109.28 64.46,109.5 64,109.5 C63.54,109.5 63.1,109.29 62.82,108.92 L54.2,97.87 C43.65,98.68 13.49,102.62 13.49,120.99 L13.49,124 L114.49,124 L114.5,120.99 L114.5,120.99 Z" fill="#212121"/>
  <path d="M114.5,120.99 C114.5,106.38 92.75,99.45 73.78,97.89 L65.18,108.92 C64.9,109.28 64.46,109.5 64,109.5 C63.54,109.5 63.1,109.29 62.82,108.92 L54.2,97.87 C43.65,98.68 13.49,102.62 13.49,120.99 L13.49,124 L114.49,124 L114.5,120.99 L114.5,120.99 Z" fill="url(#SVGID_4_)"/>
</svg>
